packages/sources/icons/src/vitamix/printer-fill.svg

<svg width="16" height="16" viewBox="0 0 16 16" xmlns="http://www.w3.org/2000/svg"><path d="M4.66683 11.3334H11.3335V14.6667H4.66683V11.3334ZM12.6668 13.3334V10H3.3335V13.3334H2.00016C1.82335 13.3334 1.65378 13.2631 1.52876 13.1381C1.40373 13.0131 1.3335 12.8435 1.3335 12.6667V6.00004C1.3335 5.82323 1.40373 5.65366 1.52876 5.52864C1.65378 5.40361 1.82335 5.33337 2.00016 5.33337H14.0002C14.177 5.33337 14.3465 5.40361 14.4716 5.52864C14.5966 5.65366 14.6668 5.82323 14.6668 6.00004V12.6667C14.6668 12.8435 14.5966 13.0131 14.4716 13.1381C14.3465 13.2631 14.177 13.3334 14.0002 13.3334H12.6668ZM3.3335 6.66671V8.00004H5.3335V6.66671H3.3335ZM4.66683 1.33337H11.3335C11.5103 1.33337 11.6799 1.40361 11.8049 1.52864C11.9299 1.65366 12.0002 1.82323 12.0002 2.00004V4.00004H4.00016V2.00004C4.00016 1.82323 4.0704 1.65366 4.19542 1.52864C4.32045 1.40361 4.49002 1.33337 4.66683 1.33337Z"/></svg>

<svg width="16" height="16" xmlns="http://www.w3.org/2000/svg"><path d="M4.667 11.333h6.666v3.334H4.667v-3.334Zm8 2V10H3.333v3.333H2a.667.667 0 0 1-.667-.666V6A.667.667 0 0 1 2 5.333h12a.666.666 0 0 1 .667.667v6.667a.667.667 0 0 1-.667.666h-1.333ZM3.333 6.667V8h2V6.667h-2Zm1.334-5.334h6.666A.667.667 0 0 1 12 2v2H4V2a.667.667 0 0 1 .667-.667Z"/></svg>
